src/components/Icon/assets/hear.svg

<svg width="24" height="24" viewBox="0 0 24 24" fill="none" xmlns="http://www.w3.org/2000/svg">
<g id="hear">
<g id="Combined Shape">
<path d="M16.7824 8.46298C16.4484 6.14698 15.0794 4.17598 13.0254 3.05598C10.5344 1.69698 7.44339 1.90098 5.15439 3.58098L3.40939 4.85998L4.59239 6.47398L6.33639 5.19398C8.00339 3.97198 10.2534 3.82198 12.0674 4.81198C13.5624 5.62698 14.5594 7.06298 14.8034 8.74798C15.0454 10.435 14.4934 12.093 13.2894 13.298C12.4584 14.128 12.0014 15.233 12.0014 16.407V17C12.0014 17.94 11.5524 18.836 10.8014 19.401C9.74139 20.195 8.26139 20.195 7.20139 19.401C6.44939 18.836 6.00139 17.94 6.00139 17V16H4.00139V17C4.00139 18.566 4.74839 20.061 6.00139 21C6.88439 21.662 7.94239 21.993 9.00139 21.993C10.0594 21.993 11.1184 21.662 12.0024 21C13.2534 20.061 14.0014 18.565 14.0014 17V16.407C14.0014 15.767 14.2504 15.165 14.7034 14.712C16.3584 13.057 17.1154 10.779 16.7824 8.46298Z" fill="#242428"/>
<path d="M20.7414 7.89267C20.4834 6.10367 19.8374 4.45767 18.8204 3.00267L17.1804 4.14967C18.0164 5.34567 18.5494 6.70167 18.7624 8.17767C19.1734 11.0387 18.2684 13.8757 16.2774 15.9617L17.7244 17.3427C20.1414 14.8097 21.2414 11.3657 20.7414 7.89267Z" fill="#242428"/>
<path d="M10.4181 8.31278C10.0411 8.02178 9.56809 7.92878 9.08509 8.05378C8.59609 8.18078 8.18209 8.59478 8.05509 9.08378C7.93009 9.56778 8.02309 10.0408 8.31409 10.4168C8.60109 10.7868 9.03409 10.9998 9.50109 10.9998V12.9998C8.41009 12.9998 7.40109 12.5048 6.73309 11.6418C6.06409 10.7788 5.84009 9.66378 6.11909 8.58378C6.42709 7.39378 7.39509 6.42578 8.58509 6.11778C9.66409 5.83578 10.7791 6.06178 11.6431 6.73178C12.5061 7.40078 13.0011 8.40878 13.0011 9.49978H11.0011C11.0011 9.03278 10.7891 8.59978 10.4181 8.31278Z" fill="#242428"/>
</g>
</g>
</svg>

<svg xmlns="http://www.w3.org/2000/svg" width="24" height="24" fill="none" viewBox="0 0 24 24">
    <path fill="#65676A" d="M16.782 8.463c-.334-2.316-1.703-4.287-3.757-5.407-2.49-1.359-5.582-1.155-7.87.525L3.408 4.86l1.183 1.614 1.744-1.28c1.667-1.222 3.917-1.372 5.731-.382 1.495.815 2.492 2.251 2.736 3.936.242 1.687-.31 3.345-1.514 4.55-.83.83-1.288 1.935-1.288 3.109V17c0 .94-.449 1.836-1.2 2.401-1.06.794-2.54.794-3.6 0-.752-.565-1.2-1.461-1.2-2.401v-1h-2v1c0 1.566.747 3.061 2 4 .883.662 1.941.993 3 .993 1.058 0 2.117-.331 3.001-.993 1.251-.939 2-2.435 2-4v-.593c0-.64.248-1.242.701-1.695 1.655-1.655 2.412-3.933 2.08-6.249z"/>
    <path fill="#65676A" d="M20.741 7.893c-.258-1.79-.904-3.435-1.92-4.89L17.18 4.15c.835 1.196 1.368 2.552 1.581 4.028.411 2.86-.494 5.698-2.485 7.784l1.447 1.38c2.417-2.532 3.517-5.976 3.017-9.45zM10.418 8.313c-.377-.291-.85-.384-1.333-.26-.489.128-.903.542-1.03 1.03-.125.485-.032.958.26 1.334.286.37.72.583 1.186.583v2c-1.09 0-2.1-.495-2.768-1.358-.669-.863-.893-1.978-.614-3.058.308-1.19 1.276-2.158 2.466-2.466 1.08-.282 2.194-.056 3.058.614.863.669 1.358 1.677 1.358 2.768h-2c0-.467-.212-.9-.583-1.187z"/>
</svg>
